applewallet.svg

<?xml version="1.0" encoding="UTF-8"?>
<svg viewBox="0 0 8 7" version="1.1" xmlns="http://www.w3.org/2000/svg" xmlns:xlink="http://www.w3.org/1999/xlink">
    <title>Apple Wallet</title>
    <defs>
        <path d="M0.553354167,0 C0.126981565,0 0,0.255525134 0,0.572937482 L0,1.24217047 C0,0.924758085 0.126981565,0.669232952 0.553354167,0.669232952 L6.78047935,0.669232952 C7.20685118,0.669232952 7.33383323,0.924758085 7.33383323,1.24217047 L7.33383323,0.572937482 C7.33383323,0.255525134 7.20685118,0 6.78047935,0 L0.553354167,0 Z" id="path-1"></path>
        <path d="M0.553354167,0 C0.126981565,0 0,0.255525134 0,0.572937482 L0,1.24217047 C0,0.924758085 0.126981565,0.669232952 0.553354167,0.669232952 L6.78047935,0.669232952 C7.20685118,0.669232952 7.33383323,0.924758085 7.33383323,1.24217047 L7.33383323,0.572937482 C7.33383323,0.255525134 7.20685118,0 6.78047935,0 L0.553354167,0 Z" id="path-3"></path>
        <path d="M0.553354167,0 C0.126981565,0 0,0.255525134 0,0.572937482 L0,1.24217047 C0,0.924758085 0.126981565,0.669232952 0.553354167,0.669232952 L6.78047935,0.669232952 C7.20685118,0.669232952 7.33383323,0.924758085 7.33383323,1.24217047 L7.33383323,0.572937482 C7.33383323,0.255525134 7.20685118,0 6.78047935,0 L0.553354167,0 Z" id="path-5"></path>
        <linearGradient x1="0%" y1="100%" x2="0%" y2="48.1683494%" id="linearGradient-7">
            <stop stop-color="#CBC9BE" offset="0%"></stop>
            <stop stop-color="#C8C5BB" stop-opacity="0" offset="100%"></stop>
        </linearGradient>
        <linearGradient x1="6.05178145e-05%" y1="100%" x2="6.05178145e-05%" y2="48.1683494%" id="linearGradient-8">
            <stop stop-color="#CBC9BE" offset="0%"></stop>
            <stop stop-color="#C8C5BB" stop-opacity="0" offset="100%"></stop>
        </linearGradient>
    </defs>
    <g id="Page-1" stroke="none" stroke-width="1" fill="none" fill-rule="evenodd">
        <g id="Apple-Wallet" transform="translate(-0.000001, -0.000000)">
            <path d="M0.821583332,0 C0.282916291,0 0,0.328709654 0,0.821583254 L0,5.18537494 C0,5.67824833 0.282916291,6.0069583 0.821583332,6.0069583 L7.17841672,6.0069583 C7.71708381,6.0069583 8,5.67824833 8,5.18537494 L8,0.821583254 C8,0.328709654 7.71708381,0 7.17841672,0 L0.821583332,0 Z" id="path4095" fill="#D9D6CC" fill-rule="nonzero"></path>
            <path d="M0.886437516,0.336813279 C0.460064914,0.336813279 0.333083349,0.592338413 0.333083349,0.909750801 L0.333083349,2.99858404 L2.21477084,3.00206322 C2.71748476,3.0029945 2.92333033,3.20523974 3.13281255,3.4882298 C3.18616251,3.56030046 3.25106206,3.6579824 3.3144375,3.72141759 C3.50367806,3.91083501 3.75183197,4.00545906 3.99999994,4.00545906 C4.24816796,4.00545906 4.49632187,3.91083542 4.68556251,3.72141759 C4.74893787,3.6579828 4.8138375,3.56030046 4.8671875,3.4882298 C5.07666972,3.20523974 5.28251517,3.00299288 5.78522919,3.00206322 L7.66691658,2.99858404 L7.66691658,0.909750801 C7.66691658,0.592338413 7.53993494,0.336813279 7.1135627,0.336813279 L0.886437516,0.336813279 Z" id="rect3638" fill="#F16D5E" fill-rule="nonzero"></path>
            <path d="M0.886437497,0.33681248 C0.46006491,0.33681248 0.333083331,0.592337601 0.333083331,0.909749974 L0.333083331,1.57898294 C0.333083331,1.26157056 0.46006491,1.00604544 0.886437497,1.00604544 L7.11356253,1.00604544 C7.53993469,1.00604544 7.66691666,1.26157056 7.66691666,1.57898294 L7.66691666,0.909749974 C7.66691666,0.592337601 7.53993469,0.33681248 7.11356253,0.33681248 L0.886437497,0.33681248 Z" id="path3676" fill="#3295C9" fill-rule="nonzero"></path>
            <g id="path3685-Clipped" transform="translate(0.333083, 0.336813)">
                <mask id="mask-2" fill="white">
                    <use xlink:href="#path-1"></use>
                </mask>
                <g id="path3755"></g>
                <path d="M0.553354167,0.669232911 C0.126981565,0.669232911 0,0.924758045 0,1.24217043 L0,1.91140326 C0,1.593991 0.126981565,1.3384659 0.553354167,1.3384659 L6.78047935,1.3384659 C7.20685118,1.3384659 7.33383323,1.593991 7.33383323,1.91140326 L7.33383323,1.24217043 C7.33383323,0.924758045 7.20685118,0.669232911 6.78047935,0.669232911 L0.553354167,0.669232911 Z" id="path3685" fill-opacity="0.317757" fill="#000000" fill-rule="nonzero" mask="url(#mask-2)"></path>
            </g>
            <path d="M0.886437516,1.00604546 C0.460064914,1.00604546 0.333083349,1.2615706 0.333083349,1.57898295 L0.333083349,2.24821578 C0.333083349,1.93080355 0.460064914,1.67527842 0.886437516,1.67527842 L7.1135627,1.67527842 C7.53993453,1.67527842 7.66691658,1.93080355 7.66691658,2.24821578 L7.66691658,1.57898295 C7.66691658,1.2615706 7.53993453,1.00604546 7.1135627,1.00604546 L0.886437516,1.00604546 Z" id="path3833" fill="#FCAD00" fill-rule="nonzero"></path>
            <g id="path3835-Clipped" transform="translate(0.333083, 0.336813)">
                <mask id="mask-4" fill="white">
                    <use xlink:href="#path-3"></use>
                </mask>
                <g id="path3755"></g>
                <path d="M0.553354186,1.3384659 C0.126981584,1.3384659 1.85708663e-08,1.59399104 1.85708663e-08,1.91140343 L1.85708663e-08,2.58063626 C1.85708663e-08,2.26322399 0.126981584,2.0076989 0.553354186,2.0076989 L6.78047937,2.0076989 C7.2068512,2.0076989 7.33383325,2.26322399 7.33383325,2.58063626 L7.33383325,1.91140343 C7.33383325,1.59399104 7.2068512,1.3384659 6.78047937,1.3384659 L0.553354186,1.3384659 Z" id="path3835" fill-opacity="0.313725" fill="#000000" fill-rule="nonzero" mask="url(#mask-4)"></path>
            </g>
            <path d="M0.886437516,1.67527846 C0.460064914,1.67527846 0.333083349,1.93080359 0.333083349,2.24821578 L0.333083349,2.91744897 C0.333083349,2.60003638 0.460064914,2.34451129 0.886437516,2.34451129 L7.1135627,2.34451129 C7.53993453,2.34451129 7.66691658,2.60003638 7.66691658,2.91744897 L7.66691658,2.24821578 C7.66691658,1.93080359 7.53993453,1.67527846 7.1135627,1.67527846 L0.886437516,1.67527846 Z" id="path3837" fill="#50BE3D" fill-rule="nonzero"></path>
            <g id="path3839-Clipped" transform="translate(0.333083, 0.336813)">
                <mask id="mask-6" fill="white">
                    <use xlink:href="#path-5"></use>
                </mask>
                <g id="path3755"></g>
                <path d="M0.553354204,2.0076989 C0.126981602,2.0076989 3.71417323e-08,2.26322403 3.71417323e-08,2.58063642 L3.71417323e-08,3.24986925 C3.71417323e-08,2.93245698 0.126981602,2.67693189 0.553354204,2.67693189 L6.78047938,2.67693189 C7.20685122,2.67693189 7.33383327,2.93245698 7.33383327,3.24986925 L7.33383327,2.58063642 C7.33383327,2.26322403 7.20685122,2.0076989 6.78047938,2.0076989 L0.553354204,2.0076989 Z" id="path3839" fill-opacity="0.313725" fill="#000000" fill-rule="nonzero" mask="url(#mask-6)"></path>
            </g>
            <polygon id="rect4114" fill="url(#linearGradient-7)" fill-rule="nonzero" points="9.11196864e-08 2.50824123 0.333083429 2.50824123 0.333083429 2.99858404 9.11196864e-08 2.99858404"></polygon>
            <polygon id="path4129" fill="url(#linearGradient-8)" fill-rule="nonzero" points="7.66691658 2.50824123 8 2.50824123 8 2.99858404 7.66691658 2.99858404"></polygon>
        </g>
    </g>
</svg>

<svg viewBox="0 0 8 7" xmlns="http://www.w3.org/2000/svg" xmlns:xlink="http://www.w3.org/1999/xlink"><defs><path d="M.553 0C.127 0 0 .256 0 .573v.67C0 .924.127.668.553.668H6.78c.427 0 .554.256.554.573v-.67C7.334.257 7.207 0 6.78 0H.553Z" id="a"/><path d="M.553 0C.127 0 0 .256 0 .573v.67C0 .924.127.668.553.668H6.78c.427 0 .554.256.554.573v-.67C7.334.257 7.207 0 6.78 0H.553Z" id="c"/><path d="M.553 0C.127 0 0 .256 0 .573v.67C0 .924.127.668.553.668H6.78c.427 0 .554.256.554.573v-.67C7.334.257 7.207 0 6.78 0H.553Z" id="e"/><linearGradient x1="0%" y1="100%" x2="0%" y2="48.168%" id="g"><stop stop-color="#CBC9BE" offset="0%"/><stop stop-color="#C8C5BB" stop-opacity="0" offset="100%"/></linearGradient><linearGradient x1="0%" y1="100%" x2="0%" y2="48.168%" id="h"><stop stop-color="#CBC9BE" offset="0%"/><stop stop-color="#C8C5BB" stop-opacity="0" offset="100%"/></linearGradient></defs><g fill="none" fill-rule="evenodd"><path d="M.822 0C.282 0 0 .329 0 .822v4.363c0 .493.283.822.822.822h6.356c.54 0 .822-.329.822-.822V.822C8 .329 7.717 0 7.178 0H.822Z" fill="#D9D6CC" fill-rule="nonzero"/><path d="M.886.337C.46.337.333.592.333.91v2.089l1.882.003c.502.001.708.203.918.486.053.072.118.17.181.233a.966.966 0 0 0 1.372 0c.063-.063.128-.16.181-.233.21-.283.416-.485.918-.486L7.667 3V.909c0-.317-.127-.572-.553-.572H.886Z" fill="#F16D5E" fill-rule="nonzero"/><path d="M.886.337C.46.337.333.592.333.91v.669c0-.317.127-.573.553-.573h6.228c.426 0 .553.256.553.573v-.67c0-.317-.127-.572-.553-.572H.886Z" fill="#3295C9" fill-rule="nonzero"/><g transform="translate(.333 .337)"><mask id="b" fill="#fff"><use xlink:href="#a"/></mask><path d="M.553.67C.127.67 0 .924 0 1.241v.67c0-.318.127-.574.553-.574H6.78c.427 0 .554.256.554.573v-.669c0-.317-.127-.573-.554-.573H.553Z" fill-opacity=".318" fill="#000" fill-rule="nonzero" mask="url(#b)"/></g><path d="M.886 1.006c-.426 0-.553.256-.553.573v.67c0-.318.127-.574.553-.574h6.228c.426 0 .553.256.553.573V1.58c0-.317-.127-.573-.553-.573H.886Z" fill="#FCAD00" fill-rule="nonzero"/><g transform="translate(.333 .337)"><mask id="d" fill="#fff"><use xlink:href="#c"/></mask><path d="M.553 1.338c-.426 0-.553.256-.553.573v.67c0-.318.127-.573.553-.573H6.78c.427 0 .554.255.554.573v-.67c0-.317-.127-.573-.554-.573H.553Z" fill-opacity=".314" fill="#000" fill-rule="nonzero" mask="url(#d)"/></g><path d="M.886 1.675c-.426 0-.553.256-.553.573v.67c0-.318.127-.573.553-.573h6.228c.426 0 .553.255.553.572v-.669c0-.317-.127-.573-.553-.573H.886Z" fill="#50BE3D" fill-rule="nonzero"/><g transform="translate(.333 .337)"><mask id="f" fill="#fff"><use xlink:href="#e"/></mask><path d="M.553 2.008c-.426 0-.553.255-.553.573v.669c0-.318.127-.573.553-.573H6.78c.427 0 .554.255.554.573v-.67c0-.317-.127-.572-.554-.572H.553Z" fill-opacity=".314" fill="#000" fill-rule="nonzero" mask="url(#f)"/></g><path fill="url(#g)" fill-rule="nonzero" d="M0 2.508h.333v.49H0z"/><path fill="url(#h)" fill-rule="nonzero" d="M7.667 2.508H8v.49h-.333z"/></g></svg>
